packages/katcn/src/icons/svg/cloud.svg

<svg width="24" height="25" viewBox="0 0 24 25" fill="none" xmlns="http://www.w3.org/2000/svg">
<path d="M15.2 4.96796C10.9 4.96796 7.4 8.56796 7.4 12.968C7.4 13.568 7.8 13.968 8.4 13.968C9 13.968 9.4 13.468 9.4 12.968C9.4 9.66796 12 6.96796 15.2 6.96796C18.4 6.96796 21 9.66796 21 12.968C21 16.268 18.4 18.968 15.2 18.968H7C4.8 18.968 3 17.168 3 14.868C3 12.968 4.2 11.368 5.9 10.868C6.4 10.668 6.7 10.168 6.6 9.56796C6.4 9.06796 5.9 8.76796 5.4 8.96796C2.8 9.66796 1 12.068 1 14.868C1 18.168 3.7 20.968 7 20.968H15.2C19.5 20.968 23 17.368 23 12.968C23 8.56796 19.5 4.96796 15.2 4.96796Z" fill="black"/>
</svg>

<svg xmlns="http://www.w3.org/2000/svg" fill="none" viewBox="0 0 24 25"><path fill="#000" d="M15.2 4.968c-4.3 0-7.8 3.6-7.8 8 0 .6.4 1 1 1s1-.5 1-1c0-3.3 2.6-6 5.8-6s5.8 2.7 5.8 6-2.6 6-5.8 6H7c-2.2 0-4-1.8-4-4.1 0-1.9 1.2-3.5 2.9-4 .5-.2.8-.7.7-1.3-.2-.5-.7-.8-1.2-.6-2.6.7-4.4 3.1-4.4 5.9 0 3.3 2.7 6.1 6 6.1h8.2c4.3 0 7.8-3.6 7.8-8s-3.5-8-7.8-8"/></svg>
